!! Example 5: "Amazing Grace"
!! from William H. Tallmadge, "Folk Organum: A Study of Origins" in
!! "American Music" Vol. 2, No. 3 (1984) p.54
!! Irregular meter
!! NOTE: Several liberties have been taken in clarifying and encoding the score.
!! Lead	Chorus	Chorus
**kern	**kern	**kern
[4G	2r	2r
16G]	.	.
16A	.	.
8c	.	.
=1	=1	=1
1c	1c	[1cc
2c	2c	4cc]
.	.	4cc
=2	=2	=2
{8.c	{4c	[4a
16d	.	.
2e	1e}	1a]
8d#	.	.
8e	.	.
16dn}	.	.
[8.c	.	.
4c]	4g	4g
=3	=3	=3
8A	{8e	2a
16e	8d	.
16d	.	.
4c	4e}	.
2c	{4.g	2cc
.	8a}	.
=4	=4	=4
2G	{4e	2g
.	4c}	.
{4.G	{4c	[4cc
.	4e}	16cc]
.	.	16dd
8A}	.	8ee
=5	=5	=5
4G	2c	2cc
4c	.	.
{4.G	2c	2cc
16A	.	.
16c}	.	.
=6	=6	=6
2c	{4g	2gg
.	16a	.
.	16g	.
.	16a	.
.	16g}	.
{4c	{4g	{4gg
4e}	4a}	4ee}
=7	=7	=7
{2e	{2a	{2ee
4d}	4g}	4dd}
=8	=8	=8
8c	1r	1r
8d	.	.
16c	.	.
8c	.	.
16A	.	.
16c	.	.
16c	.	.
8c	.	.
16A	.	.
8d	.	.
16A	.	.
16c	4r	4r
16c	.	.
8c	.	.
=9	=9	=9
{4c	{4.g	{4.cc
8e	.	.
4g}	4cc}	4gg}
=10	=10	=10
2g	{4cc	2gg
.	16a	.
.	16g	.
.	16a	.
.	16cc}	.
{8e	2cc	8ee
4g	.	4gg
8e}	.	8ee
=11	=11	=11
2c	2cc	2gg
8.e	2cc	2cc
16d	.	.
4c	.	.
=12	=12	=12
{4.d	2a	2a
16e	.	.
16d}	.	.
{8e	{4a	{4a
8d	.	.
16e	4cc}	4cc}
16d	.	.
8c}	.	.
=13	=13	=13
{4c	2c	2g
16e	.	.
16d	.	.
8c}	.	.
{4c	{4.c	{4.g
4e}	.	.
.	8e}	8a}
=14	=14	=14
[{4e	2e	2a
16e]	.	.
16d	.	.
8c}	.	.
2c	2c	{4.g
.	.	8a}
=15	=15	=15
2c	2c	2g
8A	2e	{4.a
8c	.	.
8e	.	.
8d	.	8g}
=16	=16	=16
2c	2g	2g
==	==	==
*-	*-	*-
